styles/3/Numix/32/actions/custom-add-folders-to-archive.svg

<?xml version="1.0" encoding="UTF-8" standalone="no"?>
<svg
   xmlns:dc="http://purl.org/dc/elements/1.1/"
   xmlns:cc="http://creativecommons.org/ns#"
   xmlns:rdf="http://www.w3.org/1999/02/22-rdf-syntax-ns#"
   xmlns:svg="http://www.w3.org/2000/svg"
   xmlns="http://www.w3.org/2000/svg"
   xmlns:sodipodi="http://sodipodi.sourceforge.net/DTD/sodipodi-0.dtd"
   xmlns:inkscape="http://www.inkscape.org/namespaces/inkscape"
   width="32"
   height="32"
   viewBox="0 0 32 32"
   id="svg2"
   version="1.1"
   inkscape:version="0.91 r"
   sodipodi:docname="custom-add-folders-to-archive.svg">
  <metadata
     id="metadata20">
    <rdf:RDF>
      <cc:Work
         rdf:about="">
        <dc:format>image/svg+xml</dc:format>
        <dc:type
           rdf:resource="http://purl.org/dc/dcmitype/StillImage" />
      </cc:Work>
    </rdf:RDF>
  </metadata>
  <defs
     id="defs18" />
  <sodipodi:namedview
     pagecolor="#ffffff"
     bordercolor="#666666"
     borderopacity="1"
     objecttolerance="10"
     gridtolerance="10"
     guidetolerance="10"
     inkscape:pageopacity="0"
     inkscape:pageshadow="2"
     inkscape:window-width="1280"
     inkscape:window-height="998"
     id="namedview16"
     showgrid="true"
     inkscape:zoom="19.666667"
     inkscape:cx="23.519965"
     inkscape:cy="17.139053"
     inkscape:window-x="0"
     inkscape:window-y="0"
     inkscape:window-maximized="1"
     inkscape:current-layer="svg2"
     showguides="true"
     inkscape:guide-bbox="true">
    <inkscape:grid
       type="xygrid"
       id="grid2997"
       empspacing="5"
       visible="true"
       enabled="true"
       snapvisiblegridlinesonly="true" />
  </sodipodi:namedview>
  <rect
     style="fill:replacecolour2;fill-opacity:1;stroke:none"
     id="rect3757-6"
     width="21"
     height="9"
     x="2"
     y="13" />
  <path
     style="fill:replacecolour2;fill-opacity:1;stroke:none"
     d="m 4,14 c 0,-1 0,-2 1.272728,-2 l 4.454545,0 C 11,12 11,13 11,14 z"
     id="path3759-4"
     inkscape:connector-curvature="0"
     sodipodi:nodetypes="ccccc" />
  <path
     style="fill:#95989f;fill-opacity:1;stroke:none"
     d="m 3,14 19,0 0,4.044444 -19,0 z"
     id="path3765-9"
     inkscape:connector-curvature="0" />
  <rect
     y="15"
     x="5"
     height="11.333333"
     width="16"
     id="rect3763-5"
     style="fill:#d8d8da;fill-opacity:1;stroke:none" />
  <rect
     style="fill:#f9f9f9;fill-opacity:1;stroke:none"
     id="rect3761-3"
     width="16"
     height="11.555556"
     x="4"
     y="16" />
  <path
     style="fill:replacecolour1;fill-opacity:1;stroke:none"
     d="M 0,17 25,17 23,30 2,30 z"
     id="path2987-1"
     inkscape:connector-curvature="0"
     sodipodi:nodetypes="ccccc" />
  <path
     style="fill:replacecolour2;fill-opacity:1;stroke:none"
     d="m 4.6666667,14 c 0,-1 0,-2 1.212122,-2 l 4.2424233,0 c 1.212121,0 1.212121,1 1.212121,2 z"
     id="path3759-6"
     inkscape:connector-curvature="0"
     sodipodi:nodetypes="ccccc" />
  <rect
     style="fill:replacecolour2;fill-opacity:1;stroke:none"
     id="rect3757"
     width="21"
     height="9"
     x="9"
     y="3" />
  <path
     style="fill:replacecolour2;fill-opacity:1;stroke:none"
     d="m 11,4 c 0,-1 0,-2 1.272728,-2 l 4.454545,0 C 18,2 18,3 18,4 z"
     id="path3759"
     inkscape:connector-curvature="0"
     sodipodi:nodetypes="ccccc" />
  <path
     style="fill:#95989f;fill-opacity:1;stroke:none"
     d="m 10,4 19,0 0,4.044444 -19,0 z"
     id="path3765"
     inkscape:connector-curvature="0" />
  <rect
     y="5"
     x="12"
     height="11.333333"
     width="16"
     id="rect3763"
     style="fill:#d8d8da;fill-opacity:1;stroke:none" />
  <rect
     style="fill:#f9f9f9;fill-opacity:1;stroke:none"
     id="rect3761"
     width="16"
     height="11.555556"
     x="11"
     y="6" />
  <path
     style="fill:#000000;fill-opacity:0.10196079;stroke:none"
     d="M 5.28125 12 C 4.4542918 12 4.1639457 12.429955 4.0625 13 L 2 13 L 2 17 L 0 17 L 2 30 L 23 30 L 25 17 L 23 17 L 23 13 L 11.28125 13 C 11.184635 12.429955 10.912579 12 10.125 12 L 9.71875 12 L 5.875 12 L 5.28125 12 z "
     id="rect3095" />
  <path
     style="fill:replacecolour1;fill-opacity:1;stroke:none"
     d="M 7,7 32,7 30,20 9,20 z"
     id="path2987"
     inkscape:connector-curvature="0"
     sodipodi:nodetypes="ccccc" />
  <path
     inkscape:connector-curvature="0"
     style="fill:#859900"
     d="m 30,21 -5.000001,0 0,-5 L 20,16 l 0,5 -5,0 0,4.999999 5,0 L 20,31 l 4.999999,0 0,-5.000001 5.000001,0 z"
     id="path14" />
</svg>

<svg xmlns="http://www.w3.org/2000/svg" viewBox="0 0 32 32">
 <rect width="21" height="9" x="2" y="13" style="fill:replacecolour2;fill-opacity:1;stroke:none"/>
 <path d="m 4 14 c 0 -1 0 -2 1.273 -2 l 4.455 0 c 1.273 0 1.273 1 1.273 2 z" style="fill:replacecolour2;fill-opacity:1;stroke:none"/>
 <path d="m 3 14 19 0 0 4.044 -19 0 z" style="fill:#95989f;fill-opacity:1;stroke:none"/>
 <rect y="15" x="5" height="11.333" width="16" style="fill:#d8d8da;fill-opacity:1;stroke:none"/>
 <rect width="16" height="11.556" x="4" y="16" style="fill:#f9f9f9;fill-opacity:1;stroke:none"/>
 <path d="m 0 17 25 0 -2 13 -21 0 z" style="fill:replacecolour1;fill-opacity:1;stroke:none"/>
 <path d="m 4.667 14 c 0 -1 0 -2 1.212 -2 l 4.242 0 c 1.212 0 1.212 1 1.212 2 z" style="fill:replacecolour2;fill-opacity:1;stroke:none"/>
 <rect width="21" height="9" x="9" y="3" style="fill:replacecolour2;fill-opacity:1;stroke:none"/>
 <path d="m 11,4 c 0,-1 0,-2 1.272728,-2 l 4.454545,0 C 18,2 18,3 18,4 z" style="fill:replacecolour2;fill-opacity:1;stroke:none"/>
 <path d="m 10 4 19 0 0 4.044 -19 0 z" style="fill:#95989f;fill-opacity:1;stroke:none"/>
 <rect y="5" x="12" height="11.333" width="16" style="fill:#d8d8da;fill-opacity:1;stroke:none"/>
 <rect width="16" height="11.556" x="11" y="6" style="fill:#f9f9f9;fill-opacity:1;stroke:none"/>
 <path d="m 5.281 12 c -0.827 0 -1.117 0.43 -1.219 1 l -2.063 0 l 0 4 l -2 0 l 2 13 l 21 0 l 2 -13 l -2 0 l 0 -4 l -11.719 0 c -0.097 -0.57 -0.369 -1 -1.156 -1 l -0.406 0 l -3.844 0 l -0.594 0 z" style="fill:#000;fill-opacity:0.102;stroke:none"/>
 <path d="M 7,7 32,7 30,20 9,20 z" style="fill:replacecolour1;fill-opacity:1;stroke:none"/>
 <path d="m 30 21 -5 0 0 -5 l -5 0 l 0 5 -5 0 0 5 5 0 l 0 5 l 5 0 0 -5 5 0 z" style="fill:#859900"/>
</svg>
